brandFactory_export/3.Masa/Persona_3Masa.svg

<?xml version="1.0" encoding="UTF-8"?>
<svg width="24px" height="24px" viewBox="0 0 24 24" version="1.1" xmlns="http://www.w3.org/2000/svg" xmlns:xlink="http://www.w3.org/1999/xlink">
    <title>3.Masa/Persona_3Masa</title>
    <g id="Symbols" stroke="none" stroke-width="1" fill="none" fill-rule="evenodd">
        <g id="3.Masa/Persona_3Masa" fill="#5CB615" fill-rule="nonzero">
            <path d="M18.7529412,14.2655462 C19.0117647,15.2369748 18.4302521,16.2352941 17.4588235,16.4941176 C16.9747899,16.6285714 16.4537815,16.5579832 16.0235294,16.292437 L16.0235294,21.805042 C16.0235294,22.8403361 15.2806723,23.6235294 14.2957983,23.6235294 C13.3142857,23.6235294 12.5747899,22.8403361 12.5747899,21.805042 L12.5747899,16.4605042 L12.2386555,16.4605042 L12.2386555,21.805042 C12.2386555,22.8436975 11.5226891,23.5966387 10.5411765,23.5966387 C9.55294118,23.5966387 8.80672269,22.8268908 8.80672269,21.805042 L8.80672269,16.292437 L8.75966387,16.3226891 C8.32941176,16.5613445 7.83193277,16.6252101 7.36470588,16.4907563 C6.39663866,16.2319328 5.82184874,15.2369748 6.07731092,14.2689076 L7.46218487,9.21680672 C7.47563025,9.15630252 7.49579832,9.09915966 7.51932773,9.04201681 C7.86218487,7.48907563 9.27058824,6.36638655 10.8806723,6.36638655 L13.9563025,6.36638655 C15.5663866,6.36638655 16.9714286,7.48571429 17.3142857,9.03529412 C17.3478992,9.11260504 17.3714286,9.18655462 17.3848739,9.2605042 C17.3848739,9.26722689 18.7529412,14.2655462 18.7529412,14.2655462 L18.7529412,14.2655462 Z M12.1210084,5.94957983 C10.2453782,5.94957983 9.12268908,4.83697479 9.12268908,2.97815126 C9.12268908,2.02689076 9.39831933,1.28067227 9.94285714,0.759663866 C10.4705882,0.255462185 11.2033613,0 12.1210084,0 C13.0420168,0 13.7747899,0.255462185 14.2991597,0.756302521 C14.8436975,1.27731092 15.1226891,2.02352941 15.1226891,2.97478992 C15.1226891,4.83697479 14.0033613,5.94621849 12.1210084,5.94957983 Z" id="Persona_3Masa"></path>
        </g>
    </g>
</svg>

<svg width="24" height="24" viewBox="0 0 24 24" xmlns="http://www.w3.org/2000/svg"><path d="M18.753 14.266a1.824 1.824 0 01-1.294 2.228 1.81 1.81 0 01-1.435-.202v5.513c0 1.035-.743 1.819-1.728 1.819-.982 0-1.721-.784-1.721-1.819v-5.344h-.336v5.344c0 1.039-.716 1.792-1.698 1.792-.988 0-1.734-.77-1.734-1.792v-5.513l-.047.03c-.43.24-.928.303-1.395.169a1.82 1.82 0 01-1.288-2.222l1.385-5.052c.014-.06.034-.118.057-.175.343-1.553 1.752-2.676 3.362-2.676h3.075c1.61 0 3.015 1.12 3.358 2.67.034.077.057.15.07.225 0 .006 1.369 5.005 1.369 5.005zM12.12 5.95c-1.876 0-2.998-1.113-2.998-2.972 0-.951.275-1.697.82-2.218C10.47.255 11.203 0 12.12 0c.921 0 1.654.255 2.178.756.545.521.824 1.268.824 2.219 0 1.862-1.12 2.971-3.002 2.975z" fill="#5CB615" fill-rule="nonzero"/></svg>
